pix_core/t/contextmenu.svg

<!DOCTYPE svg PUBLIC "-//W3C//DTD SVG 1.1//EN" "http://www.w3.org/Graphics/SVG/1.1/DTD/svg11.dtd" [
	<!ENTITY ns_flows "http://ns.adobe.com/Flows/1.0/">
]><svg xmlns="http://www.w3.org/2000/svg" width="12" height="12" viewBox="0 0 12 12" preserveAspectRatio="xMinYMid meet" overflow="visible"><path d="M4.4 12H0V0h12v4.4c-.2-.2-.5-.4-1-.4V3H1v2h3.3c-.2.3-.3.6-.3 1H1v2h3v1H1v2h3c0 .4.2.8.4 1zm4.1 0l-1-1h-.2l-.9.9s-.1 0-.1.1h2.2zM11 7.5l1 1V6.3s0 .1-.1.1l-.9.9v.2zm.7 2L9.5 7.4l1.7-1.7c.4-.4.3-.7-.3-.7H6c-.6 0-1 .4-1 1v4.9c0 .5.3.7.7.3l1.7-1.7 2.1 2.1c.4.4 1 .4 1.4 0l.7-.7c.4-.3.4-1 .1-1.4z" fill="#7575E0"/></svg>

<?xml version="1.0" encoding="utf-8"?>
<!-- Generator: Adobe Illustrator 15.1.0, SVG Export Plug-In  -->
<!DOCTYPE svg PUBLIC "-//W3C//DTD SVG 1.1//EN" "http://www.w3.org/Graphics/SVG/1.1/DTD/svg11.dtd" [
	<!ENTITY ns_flows "http://ns.adobe.com/Flows/1.0/">
]>
<svg version="1.1"
	 xmlns="http://www.w3.org/2000/svg" xmlns:xlink="http://www.w3.org/1999/xlink" xmlns:a="http://ns.adobe.com/AdobeSVGViewerExtensions/3.0/"
	 x="0px" y="0px" width="12px" height="12px" viewBox="0 0 12 12" style="overflow:visible;enable-background:new 0 0 12 12;"
	 xml:space="preserve" preserveAspectRatio="xMinYMid meet">
<defs>
</defs>
<path style="fill:#999999;" d="M4.4,12H0V0h12v4.4C11.8,4.2,11.5,4,11,4V3H1v2h3.3C4.1,5.3,4,5.6,4,6v0H1v2h3v1H1v2h3
	C4,11.4,4.2,11.8,4.4,12z M8.5,12l-1-1H7.3l-0.9,0.9c0,0-0.1,0-0.1,0.1H8.5z M11,7.5l1,1V6.3c0,0,0,0.1-0.1,0.1L11,7.3V7.5z
	 M11.7,9.5L9.5,7.4l1.7-1.7C11.6,5.3,11.5,5,10.9,5H6C5.4,5,5,5.4,5,6v4.9c0,0.5,0.3,0.7,0.7,0.3l1.7-1.7l2.1,2.1
	c0.4,0.4,1,0.4,1.4,0l0.7-0.7C12,10.6,12,9.9,11.7,9.5z"/>
</svg>
